X: 1
T:Love For Ever
M:C|
L:1/8
N:Dance Music, 1820-1850
O:England
A:Yorkshire
Z:Warren Armstrong
B:"The Fiddler of Helperby", Dragonfly Music, ISBN 1-872277-18-7, 1994.
K:D
"D"dAFA dAFA|"D"dAFA d4|\
"A"(eA)"D"(fA) "A"(gA)"D"(fA)|"E"(ef)(ed) "A"{e}c2A2|
"D"dAFA dAFA|"D"dAFA d4|\
"A"(eA)"D"(fA) "A"(gA)"D"(fA)|"A"(ed)(ef) "D"d4:|
|:"D"a2 af "A"g2 ge|"D"f2 fd "A"{g}e2 A2|\
"D"A2 AF "A"G2 GE|"D"F2 FD "A"E4|
"A"g2 (ge) "D"f2 (fd)|"A"e2 (ec) "D"d2(ef)|\
"Em"gbge "D"fafd|"A"egec "D"d4:|
